X:4
T:Nora Crena. HS.04
M:6/8
L:1/8
Q:3/8=120
C:”Nat.Quads.No.3,Irish”
S:Henry Stables MS,Cumbria,late19thC
R:.jig
O:Walthwaite,nr.Ambleside.
A:England
Z:vmp.Chris Partington
K:D
“^Lively with spirit”d2dd2e|f2da2f|d2dd2f|e2f gfe|!
d2dd2e|f2da2f|e2e “NB”c’2c’|e2f gfe:|!
|:a2aa2g|f2da3|a2a agf|e2f gfe|!
aba a2g|f2d agf|e2e”NB” c’2c’|e2f gfe:|
W:NB sharpened in MS

